;FLAVOR:Marlin
;TIME:5375
;Filament used: 4.54343m
;Layer height: 0.28
;MINX:88.201
;MINY:81.2
;MINZ:0.28
;MAXX:131.799
;MAXY:138.8
;MAXZ:42
;Generated with Creality Slicer 4.8.2-205
M140 S50
M105
M190 S50
M104 S200
M105
M109 S200
M82 ;absolute extrusion mode

G28 ;Home

G92 E0 ;Reset Extruder
G1 Z2.0 F3000 ;Move Z Axis up
G1 X10.1 Y20 Z0.28 F5000.0 ;Move to start position
G1 X10.1 Y200.0 Z0.28 F1500.0 E15 ;Draw the first line
G1 X10.4 Y200.0 Z0.28 F5000.0 ;Move to side a little
G1 X10.4 Y20 Z0.28 F1500.0 E30 ;Draw the second line
G92 E0 ;Reset Extruder
G1 Z2.0 F3000 ;Move Z Axis up

G92 E0
G92 E0
G1 F2700 E-5
;LAYER_COUNT:150
;LAYER:0
M107
G0 F6000 X90.684 Y84.482 Z0.28
;TYPE:SKIRT
G1 F2700 E0
G1 F1200 X91.344 Y83.824 E0.0434
G1 X91.684 Y83.523 E0.06454
G1 X92.603 Y82.823 E0.11833
G1 X93.244 Y82.446 E0.15296
G1 X93.651 Y82.232 E0.17437
G1 X94.542 Y81.833 E0.21983
G1 X94.566 Y81.824 E0.22102
G1 X95.456 Y81.549 E0.2644
G1 X95.915 Y81.437 E0.2864
G1 X96.691 Y81.289 E0.32319
G1 X97.308 Y81.228 E0.35206
G1 X97.564 Y81.213 E0.364
G1 X98.025 Y81.2 E0.38547
G1 X122.234 Y81.215 E1.51274
G1 X123.09 Y81.263 E1.55266
G1 X123.117 Y81.266 E1.55393
G1 X124.128 Y81.446 E1.60175
G1 X124.569 Y81.555 E1.6229
G1 X125.364 Y81.797 E1.66159
G1 X126.381 Y82.247 E1.71338
G1 X126.782 Y82.46 E1.73452
G1 X127.333 Y82.782 E1.76424
G1 X127.977 Y83.24 E1.80104
G1 X128.309 Y83.517 E1.82117
G1 X128.652 Y83.82 E1.84248
G1 X129.286 Y84.448 E1.88403
G1 X129.304 Y84.468 E1.88529
G1 X129.932 Y85.264 E1.9325
G1 X130.188 Y85.636 E1.95353
G1 X130.607 Y86.319 E1.99084
G1 X131.063 Y87.304 E2.04138
G1 X131.227 Y87.735 E2.06285
G1 X131.443 Y88.387 E2.09483
G1 X131.621 Y89.156 E2.13159
G1 X131.689 Y89.612 E2.15306
G1 X131.744 Y90.076 E2.17481
G1 X131.798 Y90.994 E2.21763
G1 X131.799 Y129.024 E3.98847
G1 X131.74 Y129.985 E4.0333
G1 X131.685 Y130.428 E4.05409
G1 X131.548 Y131.206 E4.09087
G1 X131.438 Y131.631 E4.11131
G1 X131.226 Y132.266 E4.14249
G1 X131.064 Y132.691 E4.16367
G1 X130.796 Y133.313 E4.1952
G1 X130.419 Y134.007 E4.23198
G1 X130.186 Y134.366 E4.25191
G1 X129.924 Y134.746 E4.2734
G1 X129.332 Y135.5 E4.31804
G1 X129.316 Y135.518 E4.31916
G1 X128.656 Y136.176 E4.36256
G1 X128.316 Y136.477 E4.3837
G1 X127.397 Y137.177 E4.43749
G1 X126.756 Y137.554 E4.47212
G1 X126.349 Y137.768 E4.49353
G1 X125.458 Y138.167 E4.53899
G1 X125.434 Y138.176 E4.54018
G1 X124.544 Y138.451 E4.58356
G1 X124.085 Y138.563 E4.60556
G1 X123.309 Y138.711 E4.64234
G1 X122.692 Y138.772 E4.67121
G1 X122.436 Y138.787 E4.68316
G1 X121.975 Y138.8 E4.70463
G1 X97.766 Y138.785 E5.8319
G1 X96.91 Y138.737 E5.87182
G1 X96.883 Y138.734 E5.87309
G1 X95.872 Y138.554 E5.92091
G1 X95.431 Y138.445 E5.94206
G1 X94.636 Y138.203 E5.98075
G1 X93.62 Y137.753 E6.0325
G1 X93.217 Y137.539 E6.05374
G1 X92.604 Y137.177 E6.08689
G1 X91.69 Y136.482 E6.14036
G1 X91.346 Y136.178 E6.16174
G1 X90.545 Y135.357 E6.21515
G1 X90.071 Y134.739 E6.25141
G1 X89.812 Y134.363 E6.27267
G1 X89.259 Y133.426 E6.32333
G1 X88.934 Y132.689 E6.36084
G1 X88.773 Y132.266 E6.38192
G1 X88.557 Y131.613 E6.41394
G1 X88.379 Y130.844 E6.4507
G1 X88.311 Y130.388 E6.47217
G1 X88.256 Y129.924 E6.49392
G1 X88.202 Y129.006 E6.53674
G1 X88.201 Y90.976 E8.30758
G1 X88.26 Y90.017 E8.35232
G1 X88.315 Y89.573 E8.37315
G1 X88.452 Y88.795 E8.40993
G1 X88.591 Y88.271 E8.43518
G1 X88.774 Y87.734 E8.46159
G1 X88.936 Y87.309 E8.48277
G1 X89.204 Y86.687 E8.51431
G1 X89.581 Y85.993 E8.55109
G1 X89.814 Y85.634 E8.57102
G1 X90.076 Y85.254 E8.59251
G1 X90.668 Y84.5 E8.63715
G1 X90.684 Y84.482 E8.63827
G0 F6000 X90.967 Y84.766
G1 F1200 X91.609 Y84.123 E8.68058
G1 X91.949 Y83.822 E8.70172
G1 X92.821 Y83.159 E8.75273
G1 X93.43 Y82.8 E8.78565
G1 X93.837 Y82.586 E8.80706
G1 X94.683 Y82.207 E8.85022
G1 X94.707 Y82.198 E8.85142
G1 X95.551 Y81.938 E8.89254
G1 X96.01 Y81.826 E8.91454
G1 X96.766 Y81.683 E8.95037
G1 X97.331 Y81.628 E8.9768
G1 X97.587 Y81.613 E8.98874
G1 X98.025 Y81.6 E9.00915
G1 X122.234 Y81.615 E10.13642
G1 X123.046 Y81.66 E10.17429
G1 X123.073 Y81.663 E10.17555
G1 X124.032 Y81.834 E10.22091
G1 X124.473 Y81.943 E10.24206
G1 X125.229 Y82.173 E10.27886
G1 X126.193 Y82.601 E10.32797
G1 X126.594 Y82.814 E10.34912
G1 X127.118 Y83.12 E10.37737
G1 X127.744 Y83.566 E10.41316
G1 X128.044 Y83.817 E10.43137
G1 X128.387 Y84.12 E10.45269
G1 X128.988 Y84.716 E10.4921
G1 X129.006 Y84.736 E10.49335
G1 X129.602 Y85.491 E10.53814
G1 X129.858 Y85.863 E10.55917
G1 X130.257 Y86.512 E10.59464
G1 X130.689 Y87.446 E10.64256
G1 X130.853 Y87.877 E10.66403
G1 X131.058 Y88.497 E10.69444
G1 X131.231 Y89.247 E10.73028
G1 X131.292 Y89.659 E10.74967
G1 X131.347 Y90.123 E10.77143
G1 X131.398 Y90.994 E10.81206
G1 X131.399 Y129.024 E12.58289
G1 X131.343 Y129.936 E12.62544
G1 X131.288 Y130.379 E12.64623
G1 X131.059 Y131.5 E12.6995
G1 X130.853 Y132.124 E12.7301
G1 X130.691 Y132.549 E12.75128
G1 X130.435 Y133.14 E12.78127
G1 X130.067 Y133.815 E12.81707
G1 X129.856 Y134.138 E12.83503
G1 X129.594 Y134.518 E12.85653
G1 X129.033 Y135.234 E12.89888
G1 X128.391 Y135.877 E12.94119
G1 X128.051 Y136.178 E12.96234
G1 X127.179 Y136.841 E13.01334
G1 X126.57 Y137.2 E13.04626
G1 X126.163 Y137.414 E13.06767
G1 X125.317 Y137.793 E13.11084
G1 X125.293 Y137.802 E13.11203
G1 X124.449 Y138.062 E13.15316
G1 X123.99 Y138.174 E13.17516
G1 X123.234 Y138.317 E13.21098
G1 X122.669 Y138.372 E13.23741
G1 X122.413 Y138.387 E13.24936
G1 X121.975 Y138.4 E13.26976
G1 X97.766 Y138.385 E14.39703
G1 X96.954 Y138.34 E14.4349
G1 X96.927 Y138.337 E14.43617
G1 X95.968 Y138.166 E14.48153
G1 X95.527 Y138.057 E14.50268
G1 X94.771 Y137.827 E14.53947
G1 X93.807 Y137.4 E14.58857
G1 X93.404 Y137.186 E14.60981
G1 X92.822 Y136.841 E14.64132
G1 X91.955 Y136.182 E14.69203
G1 X91.611 Y135.878 E14.7134
G1 X90.851 Y135.1 E14.76405
G1 X90.401 Y134.512 E14.79853
G1 X90.142 Y134.136 E14.81979
G1 X89.617 Y133.247 E14.86786
G1 X89.308 Y132.546 E14.90353
G1 X89.147 Y132.123 E14.92461
G1 X88.942 Y131.503 E14.95501
G1 X88.769 Y130.753 E14.99086
G1 X88.708 Y130.341 E15.01025
G1 X88.653 Y129.877 E15.03201
G1 X88.602 Y129.006 E15.07263
G1 X88.601 Y90.976 E16.84347
G1 X88.657 Y90.066 E16.88592
G1 X88.712 Y89.622 E16.90675
G1 X88.846 Y88.865 E16.94255
G1 X88.974 Y88.386 E16.96564
G1 X89.147 Y87.876 E16.99072
G1 X89.309 Y87.451 E17.01189
G1 X89.565 Y86.86 E17.04188
G1 X89.933 Y86.185 E17.07768
G1 X90.144 Y85.862 E17.09565
G1 X90.406 Y85.482 E17.11714
G1 X90.967 Y84.766 E17.1595
G0 F6000 X91.282 Y85.013
G1 F1200 X91.874 Y84.423 E17.19841
G1 X92.214 Y84.122 E17.21956
G1 X93.039 Y83.494 E17.26784
G1 X93.616 Y83.154 E17.29902
G1 X94.023 Y82.94 E17.32043
G1 X94.823 Y82.582 E17.36125
G1 X94.847 Y82.573 E17.36244
G1 X95.646 Y82.327 E17.40137
G1 X96.105 Y82.215 E17.42337
G1 X96.84 Y82.076 E17.4582
G1 X97.355 Y82.027 E17.48229
G1 X97.611 Y82.012 E17.49423
G1 X98.024 Y82 E17.51347
G1 X122.233 Y82.015 E18.64074
G1 X123.002 Y82.058 E18.6766
G1 X123.029 Y82.061 E18.67787
G1 X123.936 Y82.222 E18.72076
G1 X124.377 Y82.331 E18.74192
G1 X125.093 Y82.55 E18.77678
G1 X126.006 Y82.954 E18.82327
G1 X126.407 Y83.167 E18.84441
G1 X126.903 Y83.457 E18.87117
G1 X127.779 Y84.117 E18.92224
G1 X128.122 Y84.42 E18.94355
G1 X128.691 Y84.983 E18.98082
G1 X128.709 Y85.003 E18.98207
G1 X129.272 Y85.718 E19.02445
G1 X129.528 Y86.09 E19.04548
G1 X129.907 Y86.705 E19.07912
G1 X130.315 Y87.589 E19.12445
G1 X130.479 Y88.02 E19.14592
G1 X130.674 Y88.607 E19.17473
G1 X130.894 Y89.706 E19.22691
G1 X130.949 Y90.17 E19.24867
G1 X130.998 Y90.994 E19.28711
G1 X130.999 Y129.024 E21.05794
G1 X130.946 Y129.886 E21.09816
G1 X130.891 Y130.329 E21.11895
G1 X130.675 Y131.39 E21.16936
G1 X130.479 Y131.981 E21.19836
G1 X130.317 Y132.406 E21.21954
G1 X130.075 Y132.967 E21.24798
G1 X129.527 Y133.911 E21.29881
G1 X129.265 Y134.291 E21.3203
G1 X128.734 Y134.969 E21.3604
G1 X128.718 Y134.987 E21.36153
G1 X128.126 Y135.577 E21.40044
G1 X127.786 Y135.878 E21.42159
G1 X126.961 Y136.506 E21.46987
G1 X126.384 Y136.846 E21.50105
G1 X125.977 Y137.06 E21.52246
G1 X125.177 Y137.418 E21.56328
G1 X125.153 Y137.427 E21.56447
G1 X124.354 Y137.673 E21.6034
G1 X123.895 Y137.785 E21.6254
G1 X123.16 Y137.924 E21.66023
G1 X122.645 Y137.973 E21.68432
G1 X122.389 Y137.988 E21.69626
G1 X121.976 Y138 E21.7155
G1 X97.767 Y137.985 E22.84277
G1 X96.998 Y137.942 E22.87863
G1 X96.971 Y137.939 E22.8799
G1 X96.064 Y137.778 E22.92279
G1 X95.623 Y137.669 E22.94395
G1 X94.907 Y137.45 E22.97881
G1 X93.995 Y137.046 E23.02526
G1 X93.592 Y136.832 E23.0465
G1 X93.04 Y136.506 E23.07635
G1 X92.22 Y135.882 E23.12434
G1 X91.876 Y135.578 E23.14571
G1 X91.157 Y134.842 E23.19362
G1 X90.73 Y134.285 E23.2263
G1 X90.471 Y133.909 E23.24756
G1 X89.975 Y133.068 E23.29303
G1 X89.682 Y132.404 E23.32682
G1 X89.521 Y131.981 E23.3479
G1 X89.326 Y131.393 E23.37674
G1 X89.106 Y130.294 E23.42893
G1 X89.051 Y129.83 E23.45069
G1 X89.002 Y129.006 E23.48913
G1 X89.001 Y90.976 E25.25996
G1 X89.054 Y90.115 E25.30013
G1 X89.109 Y89.671 E25.32096
G1 X89.241 Y88.935 E25.35578
G1 X89.357 Y88.501 E25.3767
G1 X89.521 Y88.019 E25.40041
G1 X89.683 Y87.594 E25.42158
G1 X89.925 Y87.033 E25.45003
G1 X90.473 Y86.089 E25.50086
G1 X90.735 Y85.709 E25.52235
G1 X91.266 Y85.031 E25.56245
G1 X91.282 Y85.013 E25.56357
G0 F6000 X91.565 Y85.297
G1 F1200 X92.139 Y84.722 E25.60141
G1 X92.479 Y84.421 E25.62255
G1 X93.257 Y83.829 E25.66807
G1 X93.802 Y83.508 E25.69753
G1 X94.209 Y83.294 E25.71894
G1 X94.964 Y82.956 E25.75746
G1 X94.988 Y82.947 E25.75865
G1 X95.74 Y82.715 E25.79529
G1 X96.199 Y82.603 E25.81729
G1 X96.914 Y82.47 E25.85116
G1 X97.378 Y82.426 E25.87286
G1 X97.634 Y82.411 E25.8848
G1 X98.024 Y82.4 E25.90297
G1 X122.233 Y82.415 E27.03024
G1 X122.958 Y82.455 E27.06405
G1 X122.985 Y82.458 E27.06532
G1 X123.84 Y82.611 E27.10576
G1 X124.281 Y82.72 E27.12691
G1 X124.958 Y82.926 E27.15987
G1 X125.818 Y83.307 E27.20367
G1 X126.219 Y83.52 E27.22481
G1 X126.688 Y83.795 E27.25012
G1 X127.515 Y84.417 E27.29831
G1 X127.858 Y84.72 E27.31962
G1 X128.394 Y85.251 E27.35475
G1 X128.412 Y85.271 E27.356
G1 X128.943 Y85.944 E27.39592
G1 X129.199 Y86.316 E27.41695
G1 X129.556 Y86.897 E27.4487
G1 X129.942 Y87.731 E27.49149
G1 X130.106 Y88.162 E27.51297
G1 X130.289 Y88.717 E27.54018
G1 X130.497 Y89.753 E27.58938
G1 X130.552 Y90.217 E27.61114
G1 X130.598 Y90.994 E27.64738
G1 X130.599 Y129.024 E29.41822
G1 X130.549 Y129.837 E29.45615
G1 X130.494 Y130.28 E29.47693
G1 X130.29 Y131.28 E29.52446
G1 X130.105 Y131.839 E29.55187
G1 X129.943 Y132.264 E29.57305
G1 X129.714 Y132.794 E29.59994
G1 X129.198 Y133.684 E29.64784
G1 X128.936 Y134.064 E29.66933
G1 X128.435 Y134.703 E29.70714
G1 X127.861 Y135.278 E29.74497
G1 X127.521 Y135.579 E29.76612
G1 X126.743 Y136.171 E29.81164
G1 X126.198 Y136.492 E29.84109
G1 X125.791 Y136.706 E29.86251
G1 X125.036 Y137.044 E29.90102
G1 X125.012 Y137.053 E29.90222
G1 X124.26 Y137.285 E29.93886
G1 X123.801 Y137.397 E29.96086
G1 X123.086 Y137.53 E29.99473
G1 X122.622 Y137.574 E30.01643
G1 X122.366 Y137.589 E30.02837
G1 X121.976 Y137.6 E30.04654
G1 X97.767 Y137.585 E31.17381
G1 X97.042 Y137.545 E31.20762
G1 X97.015 Y137.542 E31.20889
G1 X96.16 Y137.389 E31.24933
G1 X95.719 Y137.28 E31.27048
G1 X95.042 Y137.074 E31.30343
G1 X94.183 Y136.693 E31.34719
G1 X93.78 Y136.479 E31.36844
G1 X93.258 Y136.171 E31.39666
G1 X92.484 Y135.583 E31.44192
G1 X92.14 Y135.279 E31.4633
G1 X91.463 Y134.584 E31.50848
G1 X91.06 Y134.058 E31.53933
G1 X90.801 Y133.682 E31.56059
G1 X90.333 Y132.89 E31.60343
G1 X90.056 Y132.262 E31.63539
G1 X89.895 Y131.839 E31.65646
G1 X89.711 Y131.283 E31.68373
G1 X89.503 Y130.247 E31.73294
G1 X89.448 Y129.783 E31.75469
G1 X89.402 Y129.006 E31.79094
G1 X89.401 Y90.976 E33.56177
G1 X89.451 Y90.165 E33.59961
G1 X89.506 Y89.721 E33.62044
G1 X89.635 Y89.006 E33.65427
G1 X89.74 Y88.616 E33.67308
G1 X89.895 Y88.161 E33.69546
G1 X90.057 Y87.736 E33.71664
G1 X90.286 Y87.206 E33.74352
G1 X90.802 Y86.316 E33.79143
G1 X91.064 Y85.936 E33.81292
G1 X91.565 Y85.297 E33.85073
G0 F6000 X91.864 Y85.563
G1 F1200 X92.404 Y85.022 E33.88632
G1 X92.744 Y84.721 E33.90747
G1 X93.475 Y84.165 E33.95023
G1 X93.989 Y83.862 E33.97802
G1 X94.396 Y83.648 E33.99943
G1 X95.104 Y83.331 E34.03555
G1 X95.128 Y83.322 E34.03674
G1 X95.835 Y83.104 E34.07119
G1 X96.294 Y82.992 E34.09319
G1 X96.987 Y82.864 E34.12601
G1 X97.401 Y82.826 E34.14537
G1 X97.657 Y82.811 E34.15731
G1 X98.024 Y82.8 E34.1744
G1 X122.233 Y82.815 E35.30168
G1 X122.914 Y82.853 E35.33344
G1 X122.941 Y82.856 E35.3347
G1 X123.744 Y82.999 E35.37268
G1 X124.185 Y83.108 E35.39383
G1 X124.822 Y83.302 E35.42484
G1 X125.63 Y83.661 E35.46601
G1 X126.031 Y83.874 E35.48715
G1 X126.474 Y84.132 E35.51102
G1 X127.25 Y84.716 E35.55625
G1 X127.593 Y85.019 E35.57756
G1 X128.096 Y85.518 E35.61055
G1 X128.114 Y85.538 E35.6118
G1 X128.613 Y86.171 E35.64933
G1 X128.869 Y86.543 E35.67036
G1 X129.206 Y87.09 E35.70028
G1 X129.568 Y87.873 E35.74045
G1 X129.732 Y88.304 E35.76192
G1 X129.904 Y88.827 E35.78756
G1 X130.1 Y89.8 E35.83377
G1 X130.155 Y90.264 E35.85553
G1 X130.198 Y90.994 E35.88958
G1 X130.199 Y129.024 E37.66042
G1 X130.152 Y129.788 E37.69606
G1 X130.097 Y130.231 E37.71684
G1 X129.905 Y131.17 E37.76147
G1 X129.731 Y131.696 E37.78727
G1 X129.569 Y132.121 E37.80845
G1 X129.353 Y132.621 E37.83381
G1 X128.868 Y133.457 E37.87882
G1 X128.606 Y133.837 E37.90031
G1 X128.136 Y134.437 E37.9358
G1 X127.596 Y134.978 E37.97139
G1 X127.256 Y135.279 E37.99254
G1 X126.525 Y135.835 E38.0353
G1 X126.011 Y136.138 E38.06308
G1 X125.604 Y136.352 E38.0845
G1 X124.896 Y136.669 E38.12062
G1 X124.872 Y136.678 E38.12181
G1 X124.165 Y136.896 E38.15626
G1 X123.706 Y137.008 E38.17826
G1 X123.013 Y137.136 E38.21108
G1 X122.599 Y137.174 E38.23043
G1 X122.343 Y137.189 E38.24238
G1 X121.976 Y137.2 E38.25947
G1 X97.767 Y137.185 E39.38674
G1 X97.086 Y137.147 E39.4185
G1 X97.059 Y137.144 E39.41977
G1 X96.256 Y137.001 E39.45775
G1 X95.815 Y136.892 E39.4789
G1 X95.178 Y136.698 E39.50991
G1 X94.37 Y136.34 E39.55106
G1 X93.967 Y136.126 E39.57231
G1 X93.476 Y135.835 E39.59888
G1 X92.749 Y135.283 E39.64139
G1 X92.405 Y134.979 E39.66276
G1 X91.769 Y134.327 E39.70518
G1 X91.389 Y133.831 E39.73427
G1 X91.13 Y133.455 E39.75553
G1 X90.691 Y132.711 E39.79576
G1 X90.43 Y132.119 E39.82588
G1 X90.269 Y131.696 E39.84696
G1 X90.096 Y131.173 E39.87261
G1 X89.9 Y130.2 E39.91882
G1 X89.845 Y129.736 E39.94058
G1 X89.802 Y129.006 E39.97463
G1 X89.801 Y90.976 E41.74547
G1 X89.848 Y90.214 E41.78102
G1 X89.903 Y89.77 E41.80185
G1 X90.117 Y88.75 E41.85038
G1 X90.269 Y88.304 E41.87232
G1 X90.431 Y87.879 E41.8935
G1 X90.647 Y87.379 E41.91886
G1 X91.132 Y86.543 E41.96387
G1 X91.394 Y86.163 E41.98536
G1 X91.864 Y85.563 E42.02085
G0 F6000 X92.163 Y85.829
G1 F1200 X92.669 Y85.321 E42.05423
G1 X93.009 Y85.02 E42.07538
G1 X93.693 Y84.5 E42.11539
G1 X94.175 Y84.216 E42.14144
G1 X94.582 Y84.002 E42.16285
G1 X95.244 Y83.705 E42.19663
G1 X95.268 Y83.696 E42.19783
G1 X95.93 Y83.492 E42.23008
G1 X96.389 Y83.38 E42.25208
G1 X97.059 Y83.258 E42.2838
G1 X97.425 Y83.225 E42.30091
G1 X97.681 Y83.21 E42.31285
G1 X98.024 Y83.2 E42.32883
G1 X122.233 Y83.215 E43.4561
G1 X122.87 Y83.25 E43.48581
G1 X122.897 Y83.253 E43.48707
G1 X123.648 Y83.387 E43.52259
G1 X124.089 Y83.496 E43.54374
G1 X124.687 Y83.679 E43.57286
G1 X125.443 Y84.014 E43.61137
G1 X125.844 Y84.227 E43.63251
G1 X126.259 Y84.47 E43.6549
G1 X126.985 Y85.016 E43.6972
G1 X127.328 Y85.319 E43.71851
G1 X127.799 Y85.786 E43.7494
G1 X127.817 Y85.806 E43.75065
G1 X128.284 Y86.398 E43.78576
G1 X128.54 Y86.77 E43.80679
G1 X128.855 Y87.283 E43.83482
G1 X129.194 Y88.015 E43.87238
G1 X129.358 Y88.446 E43.89386
G1 X129.52 Y88.937 E43.91793
G1 X129.703 Y89.847 E43.96115
G1 X129.758 Y90.311 E43.98291
G1 X129.798 Y90.994 E44.01477
G1 X129.799 Y129.024 E45.7856
G1 X129.755 Y129.739 E45.81896
G1 X129.7 Y130.182 E45.83975
G1 X129.521 Y131.06 E45.88147
G1 X129.358 Y131.554 E45.90569
G1 X129.196 Y131.979 E45.92687
G1 X128.993 Y132.448 E45.95067
G1 X128.539 Y133.23 E45.99277
G1 X128.277 Y133.61 E46.01427
G1 X127.837 Y134.171 E46.04747
G1 X127.331 Y134.679 E46.08085
G1 X126.991 Y134.98 E46.102
G1 X126.307 Y135.5 E46.14201
G1 X125.825 Y135.784 E46.16806
G1 X125.418 Y135.998 E46.18947
